X: 5
T: Lord Mayo
R: polka
M: 2/4
L: 1/8
K: Amin
E | A>GA>B e2 dB | e>dB>A GA/G/ E2 | A>GA>B Te2 d>B | e>dB>A A3 :|
g>eg>a b2 ag | egd(B/A/) GA/G/ E2 | g>eg>a b2 ag | e>d e2 (ab) a2 |
gega b2 ag | egd(B/A/) GA/G/ E2 | A>GA>B Te2 dB | e>dBA A3 ||


